X:6094
T:Slap At Her Canister. WM055
O:england
M:6/8
L:1/8
S:Wm.Mittell,1799
R:Jig
A:Kent
K:G
B|c2Bc2A|G2GG2B|c2Bd2B|A2AA2B|c2de2c|B2cd2B|A2Bc2A|G2GG2:|
|:z|d2d dcB|c2ee3|c2c cBA|B2dd3|B2B BAG|B2dg3|e2cA2c|B2GG3:|]


